X: 1748
T: the Redhaired Boy   #2
R: hornpipe, reel
%S: s:3 b:12(4+4+4)
B: O'Neill's 1850 #1748
O: F.O'Neill
Z: Bob Safranek, rjs@gsp.org
Z: A. LEE WORMAN
N: Compacted by using labels and play order [JC]
P: Play ABAB CBCB
M: 2/4
L: 1/16
K: A
"^A"[| (AG) | EAAG ABcd   | efec d2(cd) | edcB ABcA | BGEF G2 |]
"^B"[| (ED) | EAAG ABcd   | efec d2(cd) | eaab aged | c2A2 A2 |]
"^C"[| (ef) | gfga g2(ef) | gfec d2(cd) | edcB ABcA | BGEF G2 |]
%%text Most of the G notes are usually G naturals.
